!!!ONB: MCCC : IGH0460_03 : Extracted Monophonic Melody
!!!COM: Handel, George Frideric
!!!OPR: Suite No.1 in A major
!!!OMV: 3
!!!SCT: HWV 426
!!!ODT: 1720///
**kern
*staff1
*clefG2
*k[f#c#g#]
*A:
*M3/4
4c#
=1
8e
8e
32e
32e
32e
32e
8e
4d
=2
4.c#
8e
8f#
8g#
=3
32a
32g#
32a
32g#
4a
8b
8cc#
8dd
=4
16cc#
32b
32cc#
32b
16.cc#
4b
16a
32g#
32a
16g#
32f#
32g#
=5
8a
16g#
16a
32b
32a
32b
32a
16r
32g#
32a
16b
16a
8b
=6
4.e
8ee
8ee
8ee
=7
8ee
8ee
8dd
8dd
8dd
8dd
=8
8dd
8dd
8cc#
8b
8cc#[
8cc#]
=9
8d
8f#
4e
8a
8B
=10
4.a
8cc#
8.b
16a
=11
8b
8e
8b
8dd
16dd
32cc#
32dd
16cc#
16b
=12
32cc#
32b
8.cc#
8r
8ee
8b
8ee
=13
8a
8ff#
16a
32g#
32a
32g#
32a
16g#[
8g#]
8a
=14
4.f#
16ee
16dd#
16ee
32dd#
32ee
16dd#
32cc#
32dd#
=15
8ee
16dd#
16ee
16ff#
32ee
32ff#
16ee
32dd#
32ee
16ff#
16ee
8ff#
=16
4.b
8b
8b
8b
=17
8b
8b
8a
8a
8a
8a
=18
8g#
8e
4.ee
8dd#
=19
8cc#
8b
8a
8g#
8a
8a
=20
8f#
8a
16b
16a
16g#
16f#
8g#
8e
=21
4f#
4f#
8e
8d#
=22
2e
8a
8d#
=23
2e
4c#
=24
8e
8e
32e
32e
32e
32e
8e
4d
=25
4.c#
8e
8f#
8g#
=26
32a
32g#
32a
32g#
4a
8b
8cc#
8dd
=27
16cc#
32b
32cc#
32b
16.cc#
4b
16a
32g#
32a
16g#
32f#
32g#
=28
8a
16g#
16a
32b
32a
32b
32a
16r
32g#
32a
16b
16a
8b
=29
4.e
8ee
8ee
8ee
=30
8ee
8ee
8dd
8dd
8dd
8dd
=31
8dd
8dd
8cc#
8b
8cc#[
8cc#]
=32
8d
8f#
4e
8a
8B
=33
4.a
8cc#
8.b
16a
=34
8b
8e
8b
8dd
16dd
32cc#
32dd
16cc#
16b
=35
32cc#
32b
8.cc#
8r
8ee
8b
8ee
=36
8a
8ff#
16a
32g#
32a
32g#
32a
16g#[
8g#]
8a
=37
4.f#
16ee
16dd#
16ee
32dd#
32ee
16dd#
32cc#
32dd#
=38
8ee
16dd#
16ee
16ff#
32ee
32ff#
16ee
32dd#
32ee
16ff#
16ee
8ff#
=39
4.b
8b
8b
8b
=40
8b
8b
8a
8a
8a
8a
=41
8g#
8e
4.ee
8dd#
=42
8cc#
8b
8a
8g#
8a
8a
=43
16B
8.d#
4r
4r
=44
4f#
4f#
8e
8d#
=45
2e
8a
8d#
=46
4.e
8B
8e
8g#
=47
4r
4e
8b[
8b]
=48
2g#
4r
=49
4r
4a
8dd[
8dd]
=50
2cc#
4r
=51
8dd
8a#
8b
8g#
8a
8b
=52
4.e#
8g#
8cc#
8e#
=53
4f#
16g#
32f#
32g#
16f#
32e#
32f#
16g#
16f#
8g#
=54
4.c#
8cc#
8cc#
8cc#
=55
4r
4r
8r
8b
=56
8g#
8b
8r
8cc#
8a
8e#
=57
8f#
8b
4a
16a
32g#
32a
16g#
16f#
=58
4.f#
8ff#
8ff#
8ff#
=59
8ff#
8ff#
8ee
8ee
8ee
8ee
=60
16ee
32dd
32ee
16dd
16cc#
8b
8b
8b
8b
=61
8cc#
8dd#
16ee
32dd#
32ee
32dd#
32ee
16dd#[
8dd#]
16cc#
16dd#
=62
2ee
4r
=63
8aa
16gg#
16aa
16bb
32aa
32bb
16aa
32gg#
32aa
16bb
16aa
8bb
=64
4.ee
8gg#
8aa
8a
=65
8ff#
8ee
8dd
8cc#
8b
8a
=66
8.g#
16f#
4.e
8g#
=67
4.a
16g#
16a
16b
16a
8b
=68
4.e
8ee
8ee
8ee
=69
8ee
8ee
8dd
8dd
8dd
8dd
=70
8a
8dd
8cc#
8b
8cc#
8a
=71
4b[
4b]
8d
8g#
=72
8a
8a
8a[
8a]
8dd
8g#
=73
4c#
4e
4r
=74
4r
4e
8b[
8b]
=75
2g#
4r
=76
4r
4a
8dd[
8dd]
=77
2cc#
4r
=78
8dd
8a#
8b
8g#
8a
8b
=79
4.e#
8g#
8cc#
8e#
=80
4f#
16g#
32f#
32g#
16f#
32e#
32f#
16g#
16f#
8g#
=81
4.c#
8cc#
8cc#
8cc#
=82
4r
4r
8r
8b
=83
8g#
8b
8r
8cc#
8a
8e#
=84
8f#
8b
4a
16a
32g#
32a
16g#
16f#
=85
4.f#
8ff#
8ff#
8ff#
=86
8ff#
8ff#
8ee
8ee
8ee
8ee
=87
16ee
32dd
32ee
16dd
16cc#
8b
8b
8b
8b
=88
8cc#
8dd#
16ee
32dd#
32ee
32dd#
32ee
16dd#[
8dd#]
16cc#
16dd#
=89
2ee
4r
=90
8aa
16gg#
16aa
16bb
32aa
32bb
16aa
32gg#
32aa
16bb
16aa
8bb
=91
4.ee
8gg#
8aa
8a
=92
8ff#
8ee
8dd
8cc#
8b
8a
=93
8.g#
16f#
4.e
8g#
=94
4.a
16g#
16a
16b
16a
8b
=95
4.e
8ee
8ee
8ee
=96
8ee
8ee
8dd
8dd
8dd
8dd
=97
8a
8dd
8cc#
8b
8cc#
8a
=98
4b[
4b]
8d
8g#
=99
8a
8a
8a[
8a]
8dd
8g#
=100
4c#
4e
4r
==
*-
